svg/material-icons/pending/materialiconstwotone/20px.svg

<svg xmlns="http://www.w3.org/2000/svg" width="20" height="20" viewBox="0 0 20 20"><path d="M10 4c-3.31 0-6 2.69-6 6s2.69 6 6 6 6-2.69 6-6-2.69-6-6-6zm-3.5 7c-.55 0-1-.45-1-1s.45-1 1-1 1 .45 1 1-.45 1-1 1zm3.5 0c-.55 0-1-.45-1-1s.45-1 1-1 1 .45 1 1-.45 1-1 1zm3.5 0c-.55 0-1-.45-1-1s.45-1 1-1 1 .45 1 1-.45 1-1 1z" opacity=".3"/><path d="M10 3c-3.87 0-7 3.13-7 7s3.13 7 7 7 7-3.13 7-7-3.13-7-7-7zm0 13c-3.31 0-6-2.69-6-6s2.69-6 6-6 6 2.69 6 6-2.69 6-6 6z"/><circle cx="6.5" cy="10" r="1"/><circle cx="13.5" cy="10" r="1"/><circle cx="10" cy="10" r="1"/></svg>

<svg xmlns="http://www.w3.org/2000/svg" enable-background="new 0 0 20 20" height="20" viewBox="0 0 20 20" width="20"><g><rect fill="none" height="20" width="20"/></g><g><g><path d="M10,4c-3.31,0-6,2.69-6,6c0,3.31,2.69,6,6,6s6-2.69,6-6C16,6.69,13.31,4,10,4z M6.5,11c-0.55,0-1-0.45-1-1 c0-0.55,0.45-1,1-1s1,0.45,1,1C7.5,10.55,7.05,11,6.5,11z M10,11c-0.55,0-1-0.45-1-1c0-0.55,0.45-1,1-1s1,0.45,1,1 C11,10.55,10.55,11,10,11z M13.5,11c-0.55,0-1-0.45-1-1c0-0.55,0.45-1,1-1s1,0.45,1,1C14.5,10.55,14.05,11,13.5,11z" opacity=".3"/><path d="M10,3c-3.87,0-7,3.13-7,7c0,3.87,3.13,7,7,7s7-3.13,7-7C17,6.13,13.87,3,10,3z M10,16c-3.31,0-6-2.69-6-6 c0-3.31,2.69-6,6-6s6,2.69,6,6C16,13.31,13.31,16,10,16z"/><circle cx="6.5" cy="10" r="1"/><circle cx="13.5" cy="10" r="1"/><circle cx="10" cy="10" r="1"/></g></g></svg>
